source/img/icon-basket-plus.svg

<svg width="31" height="19" viewBox="0 0 31 19" fill="none" xmlns="http://www.w3.org/2000/svg">
<path fill-rule="evenodd" clip-rule="evenodd" d="M1 2C0.447715 2 0 1.55228 0 1C0 0.447715 0.447715 0 1 0H4.44581L8.28845 8.25721H15.5538L19.2034 1.88294C19.4778 1.40365 20.0888 1.23757 20.5681 1.51198C21.0474 1.7864 21.2135 2.39739 20.939 2.87668L16.7133 10.2572H7.66972L7.00025 11.7435H17.5021C18.0544 11.7435 18.5021 12.1913 18.5021 12.7435C18.5021 13.2958 18.0544 13.7435 17.5021 13.7435H7.00025C6.71706 13.7435 6.4371 13.6834 6.17889 13.5671C5.17177 13.1135 4.72307 11.9293 5.17669 10.9222L6.22745 8.58932L6.2322 8.57892L3.17058 2H1ZM8 19C9.10457 19 10 18.1046 10 17C10 15.8954 9.10457 15 8 15C6.89543 15 6 15.8954 6 17C6 18.1046 6.89543 19 8 19ZM18 17C18 18.1046 17.1046 19 16 19C14.8954 19 14 18.1046 14 17C14 15.8954 14.8954 15 16 15C17.1046 15 18 15.8954 18 17ZM26 6C26 5.44772 26.4477 5 27 5C27.5523 5 28 5.44772 28 6V8H30C30.5523 8 31 8.44771 31 9C31 9.55228 30.5523 10 30 10H28V12C28 12.5523 27.5523 13 27 13C26.4477 13 26 12.5523 26 12V10H24C23.4477 10 23 9.55228 23 9C23 8.44772 23.4477 8 24 8H26V6Z" fill="#F2F5F7"/>
</svg>

<svg width="31" height="19" fill="none" xmlns="http://www.w3.org/2000/svg"><path fill-rule="evenodd" clip-rule="evenodd" d="M1 2a1 1 0 010-2h3.446l3.842 8.257h7.266l3.65-6.374a1 1 0 111.735.994l-4.226 7.38H7.67L7 11.743h10.502a1 1 0 010 2H7a2 2 0 01-1.823-2.82l1.05-2.334.005-.01L3.171 2H1zm7 17a2 2 0 100-4 2 2 0 000 4zm10-2a2 2 0 11-4 0 2 2 0 014 0zm8-11a1 1 0 112 0v2h2a1 1 0 110 2h-2v2a1 1 0 11-2 0v-2h-2a1 1 0 110-2h2V6z" fill="#F2F5F7"/></svg>
